Numix-GalliumOS/64/apps/goa-account-owncloud.svg

<?xml version="1.0" encoding="UTF-8" standalone="yes"?>
<svg xmlns="http://www.w3.org/2000/svg" xmlns:xlink="http://www.w3.org/1999/xlink" width="96px" height="96px" viewBox="0 0 72 72" version="1.1">
  <g id="surface1">
    <path style="fill-rule:nonzero;fill:rgb(10.980392%,17.647059%,26.666667%);fill-opacity:1;stroke-width:1;stroke-linecap:butt;stroke-linejoin:miter;stroke:rgb(97.647059%,97.647059%,97.647059%);stroke-opacity:1;stroke-miterlimit:4;" d="M 308.801665 78.910941 C 308.801665 90.131323 299.722014 99.229429 288.483177 99.229429 C 277.244341 99.229429 268.164689 90.131323 268.164689 78.910941 C 268.164689 67.672104 277.244341 58.573999 288.483177 58.573999 C 299.722014 58.573999 308.801665 67.672104 308.801665 78.910941 Z M 308.801665 78.910941 " transform="matrix(0.211668,0,0,0.211668,-37.418233,11.648612)"/>
    <path style="fill-rule:nonzero;fill:rgb(10.980392%,17.647059%,26.666667%);fill-opacity:1;stroke-width:1;stroke-linecap:butt;stroke-linejoin:miter;stroke:rgb(97.647059%,97.647059%,97.647059%);stroke-opacity:1;stroke-miterlimit:4;" d="M 288.464723 149.573511 C 288.464723 170.131908 271.781786 186.833299 251.204934 186.833299 C 230.646537 186.833299 213.982055 170.131908 213.982055 149.573511 C 213.982055 128.996659 230.646537 112.332177 251.204934 112.332177 C 271.781786 112.332177 288.464723 128.996659 288.464723 149.573511 Z M 288.464723 149.573511 " transform="matrix(0.211668,0,0,0.211668,-37.418233,11.648612)"/>
    <path style="fill-rule:nonzero;fill:rgb(10.980392%,17.647059%,26.666667%);fill-opacity:1;stroke-width:1;stroke-linecap:butt;stroke-linejoin:miter;stroke:rgb(97.647059%,97.647059%,97.647059%);stroke-opacity:1;stroke-miterlimit:4;" d="M 333.475433 124.789016 C 333.475433 147.02678 315.463767 165.075355 293.226003 165.075355 C 271.006694 165.075355 252.976574 147.02678 252.976574 124.789016 C 252.976574 102.551252 271.006694 84.539586 293.226003 84.539586 C 315.463767 84.539586 333.475433 102.551252 333.475433 124.789016 Z M 333.475433 124.789016 " transform="matrix(0.211668,0,0,0.211668,-37.418233,11.648612)"/>
    <path style="fill-rule:nonzero;fill:rgb(10.980392%,17.647059%,26.666667%);fill-opacity:1;stroke-width:1;stroke-linecap:butt;stroke-linejoin:miter;stroke:rgb(97.647059%,97.647059%,97.647059%);stroke-opacity:1;stroke-miterlimit:4;" d="M 412.571744 108.475171 C 412.571744 129.052023 395.907262 145.716505 375.348865 145.716505 C 354.772013 145.716505 338.107531 129.052023 338.107531 108.475171 C 338.107531 87.916774 354.772013 71.215383 375.348865 71.215383 C 395.907262 71.215383 412.571744 87.916774 412.571744 108.475171 Z M 412.571744 108.475171 " transform="matrix(0.211668,0,0,0.211668,-37.418233,11.648612)"/>
    <path style="fill-rule:nonzero;fill:rgb(10.980392%,17.647059%,26.666667%);fill-opacity:1;stroke-width:1;stroke-linecap:butt;stroke-linejoin:miter;stroke:rgb(97.647059%,97.647059%,97.647059%);stroke-opacity:1;stroke-miterlimit:4;" d="M 371.731768 79.501487 C 371.731768 100.059885 355.067286 116.724366 334.508889 116.724366 C 313.932037 116.724366 297.249101 100.059885 297.249101 79.501487 C 297.249101 58.924635 313.950492 42.278608 334.508889 42.278608 C 355.085741 42.278608 371.731768 58.94309 371.731768 79.501487 Z M 371.731768 79.501487 " transform="matrix(0.211668,0,0,0.211668,-37.418233,11.648612)"/>
    <path style="fill-rule:nonzero;fill:rgb(10.980392%,17.647059%,26.666667%);fill-opacity:1;stroke-width:1;stroke-linecap:butt;stroke-linejoin:miter;stroke:rgb(97.647059%,97.647059%,97.647059%);stroke-opacity:1;stroke-miterlimit:4;" d="M 479.727945 163.96808 C 479.727945 175.723645 470.186929 185.246206 458.41291 185.246206 C 446.6758 185.246206 437.134784 175.723645 437.134784 163.96808 C 437.134784 152.194061 446.6758 142.653045 458.41291 142.653045 C 470.186929 142.653045 479.727945 152.194061 479.727945 163.96808 Z M 479.727945 163.96808 " transform="matrix(0.211668,0,0,0.211668,-37.418233,11.648612)"/>
    <path style="fill-rule:nonzero;fill:rgb(10.980392%,17.647059%,26.666667%);fill-opacity:1;stroke-width:1;stroke-linecap:butt;stroke-linejoin:miter;stroke:rgb(97.647059%,97.647059%,97.647059%);stroke-opacity:1;stroke-miterlimit:4;" d="M 453.430174 147.561962 C 453.430174 169.799726 435.418509 187.811392 413.143836 187.811392 C 390.924527 187.811392 372.894406 169.799726 372.894406 147.561962 C 372.894406 125.305744 390.924527 107.294078 413.143836 107.294078 C 435.400054 107.294078 453.430174 125.305744 453.430174 147.561962 Z M 453.430174 147.561962 " transform="matrix(0.211668,0,0,0.211668,-37.418233,11.648612)"/>
    <path style="fill-rule:nonzero;fill:rgb(10.980392%,17.647059%,26.666667%);fill-opacity:1;stroke-width:1;stroke-linecap:butt;stroke-linejoin:miter;stroke:rgb(97.647059%,97.647059%,97.647059%);stroke-opacity:1;stroke-miterlimit:4;" d="M 312.04967 166.016538 C 312.04967 177.772103 302.527109 187.294664 290.75309 187.294664 C 278.997525 187.294664 269.474964 177.772103 269.474964 166.016538 C 269.474964 154.242519 278.997525 144.719958 290.75309 144.719958 C 302.527109 144.719958 312.04967 154.242519 312.04967 166.016538 Z M 312.04967 166.016538 " transform="matrix(0.211668,0,0,0.211668,-37.418233,11.648612)"/>
    <path style="fill-rule:nonzero;fill:rgb(10.980392%,17.647059%,26.666667%);fill-opacity:1;stroke-width:1;stroke-linecap:butt;stroke-linejoin:miter;stroke:rgb(97.647059%,97.647059%,97.647059%);stroke-opacity:1;stroke-miterlimit:4;" d="M 166.581838 -64.482625 C 166.581838 -43.149632 149.26267 -25.858241 127.929676 -25.858241 C 106.596683 -25.858241 89.305292 -43.149632 89.305292 -64.482625 C 89.305292 -85.815619 106.596683 -103.10701 127.929676 -103.10701 C 149.26267 -103.10701 166.581838 -85.815619 166.581838 -64.482625 Z M 166.581838 -64.482625 " transform="matrix(0.281254,0,0,0.281254,-0.00423229,58.499309)"/>
  </g>
</svg>

<svg xmlns="http://www.w3.org/2000/svg" width="64" height="64" viewBox="0 0 48 48">
 <g>
  <path d="m 308.82 78.92 c 0 11.211 -9.08 20.318 -20.318 20.318 c -11.239 0 -20.318 -9.107 -20.318 -20.318 c 0 -11.239 9.08 -20.346 20.318 -20.346 c 11.239 0 20.318 9.107 20.318 20.346 m 0 0" transform="matrix(0.141112,0,0,0.141112,-24.945489,7.765741)" style="stroke-opacity:1;fill:#1b2d44;stroke-miterlimit:4;fill-opacity:1;stroke:#f9f9f9;fill-rule:nonzero;stroke-linecap:butt;stroke-linejoin:miter;stroke-width:1"/>
  <path d="m 288.47 149.56 c 0 20.568 -16.692 37.26 -37.26 37.26 c -20.568 0 -37.23 -16.692 -37.23 -37.26 c 0 -20.568 16.664 -37.23 37.23 -37.23 c 20.568 0 37.26 16.664 37.26 37.23 m 0 0" transform="matrix(0.141112,0,0,0.141112,-24.945489,7.765741)" style="stroke-opacity:1;fill:#1b2d44;stroke-miterlimit:4;fill-opacity:1;stroke:#f9f9f9;fill-rule:nonzero;stroke-linecap:butt;stroke-linejoin:miter;stroke-width:1"/>
  <path d="m 333.48 124.79 c 0 22.23 -18.02 40.28 -40.25 40.28 c -22.23 0 -40.25 -18.05 -40.25 -40.28 c 0 -22.23 18.02 -40.25 40.25 -40.25 c 22.23 0 40.25 18.02 40.25 40.25 m 0 0" transform="matrix(0.141112,0,0,0.141112,-24.945489,7.765741)" style="stroke-opacity:1;fill:#1b2d44;stroke-miterlimit:4;fill-opacity:1;stroke:#f9f9f9;fill-rule:nonzero;stroke-linecap:butt;stroke-linejoin:miter;stroke-width:1"/>
  <path d="m 412.57 108.48 c 0 20.568 -16.664 37.23 -37.23 37.23 c -20.568 0 -37.23 -16.664 -37.23 -37.23 c 0 -20.568 16.664 -37.26 37.23 -37.26 c 20.568 0 37.23 16.692 37.23 37.26 m 0 0" transform="matrix(0.141112,0,0,0.141112,-24.945489,7.765741)" style="stroke-opacity:1;fill:#1b2d44;stroke-miterlimit:4;fill-opacity:1;stroke:#f9f9f9;fill-rule:nonzero;stroke-linecap:butt;stroke-linejoin:miter;stroke-width:1"/>
  <path d="m 371.74 79.5 c 0 20.568 -16.664 37.23 -37.23 37.23 c -20.568 0 -37.26 -16.664 -37.26 -37.23 c 0 -20.568 16.692 -37.23 37.26 -37.23 c 20.568 0 37.23 16.664 37.23 37.23 m 0 0" transform="matrix(0.141112,0,0,0.141112,-24.945489,7.765741)" style="stroke-opacity:1;fill:#1b2d44;stroke-miterlimit:4;fill-opacity:1;stroke:#f9f9f9;fill-rule:nonzero;stroke-linecap:butt;stroke-linejoin:miter;stroke-width:1"/>
  <path d="m 479.73 163.96 c 0 11.765 -9.55 21.287 -21.315 21.287 c -11.737 0 -21.287 -9.523 -21.287 -21.287 c 0 -11.765 9.55 -21.315 21.287 -21.315 c 11.765 0 21.315 9.55 21.315 21.315 m 0 0" transform="matrix(0.141112,0,0,0.141112,-24.945489,7.765741)" style="stroke-opacity:1;fill:#1b2d44;stroke-miterlimit:4;fill-opacity:1;stroke:#f9f9f9;fill-rule:nonzero;stroke-linecap:butt;stroke-linejoin:miter;stroke-width:1"/>
  <path d="m 453.43 147.57 c 0 22.23 -18.02 40.25 -40.28 40.25 c -22.23 0 -40.25 -18.02 -40.25 -40.25 c 0 -22.256 18.02 -40.28 40.25 -40.28 c 22.256 0 40.28 18.02 40.28 40.28 m 0 0" transform="matrix(0.141112,0,0,0.141112,-24.945489,7.765741)" style="stroke-opacity:1;fill:#1b2d44;stroke-miterlimit:4;fill-opacity:1;stroke:#f9f9f9;fill-rule:nonzero;stroke-linecap:butt;stroke-linejoin:miter;stroke-width:1"/>
  <path d="m 312.06 166.01 c 0 11.765 -9.523 21.287 -21.287 21.287 c -11.765 0 -21.287 -9.523 -21.287 -21.287 c 0 -11.765 9.523 -21.287 21.287 -21.287 c 11.765 0 21.287 9.523 21.287 21.287 m 0 0" transform="matrix(0.141112,0,0,0.141112,-24.945489,7.765741)" style="stroke-opacity:1;fill:#1b2d44;stroke-miterlimit:4;fill-opacity:1;stroke:#f9f9f9;fill-rule:nonzero;stroke-linecap:butt;stroke-linejoin:miter;stroke-width:1"/>
  <path d="m 166.57 -64.48 c 0 21.333 -17.312 38.624 -38.645 38.624 c -21.333 0 -38.624 -17.291 -38.624 -38.624 c 0 -21.333 17.291 -38.624 38.624 -38.624 c 21.333 0 38.645 17.291 38.645 38.624 m 0 0" transform="matrix(0.187503,0,0,0.187503,-0.00282153,38.999539)" style="stroke-opacity:1;fill:#1b2d44;stroke-miterlimit:4;fill-opacity:1;stroke:#f9f9f9;fill-rule:nonzero;stroke-linecap:butt;stroke-linejoin:miter;stroke-width:1"/>
 </g>
</svg>
